X:1
T:The Victory
T:The Victory
T:Paul Rader
T:Paul Rader, 1918
T:Public Domain Courtesy of the Cyber Hymnal™
T:Public Domain Courtesy of the Cyber Hymnal™
C:Paul Rader
Z:Public Domain
Z:Courtesy of the Cyber Hymnal™
%%score ( 1 2 ) ( 3 4 )
L:1/8
Q:1/4=105
M:4/4
K:C
V:1 treble 
V:2 treble 
V:3 bass 
V:4 bass 
V:1
 [EG]2 [CE][DF] [EG]2 [Gc]2 | [Ac]2 [GB][FA] [EG]2 [CE]2 | [DF]2 [B,D][CE] [DF]2 [EG]2 | %3
w: 1.~No more need fear, and|no more need doubt- ing,|No more need pride con-|
w: 2.~There is a place, praise|God, I have found it!|There is a place where|
w: 3.~Pre- cious pro- vi- sion,|won- der- ful pros- pect,|Je- sus will rule and|
 [FB]2 [FA][DF] [CE]4 | [EG]2 [^D^F][EG] [Ec]2 [Gc]2 | [Fd]2 [Fc][GB] [GB]2 [FA]2 | %6
w: trol in my life.|I may be free from|all con- dem- na- tion,|
w: we may be free;|Free from de- feat, with|pow- er sur- round- ed;|
w: Je- sus will lead;|He is my shep- herd,|He is my keep- er,|
 [^Dc]2 [DB][DA] [EG][Ec] [Gc]2 | [Fd]2 [Ec][FB] [Ec]4 ||"^Refrain" [EG]2 [CE][DF] [EG]4 | %9
w: I can have vic- to- ry|now in the strife.||
w: Yes, there is vic- to- ry,|Je- sus, in Thee.||
w: He is my Bread of Life,|on Him I feed.||
 [Ec]2 [Gd][Gc] [FA]4 | [Fc]2 [FB]F [FA]4 | [EB]2 [EA][EG] [CE]4 | [CE]2 [EG][Ec] [Ec]4 | %13
w: ||||
w: ||||
w: ||||
 [Fe]2 [Fd][Fc] [FA]4 | [_Ed]2 [Ec][EA] [=EG]3 [Ec] | [Fd]2 [FB]2 [Ec]4 |] %16
w: |||
w: |||
w: |||
V:2
 x8 | x8 | x8 | x8 | x8 | x8 | x8 | x8 || x8 | x8 | x3 F x4 | x8 | x8 | x8 | x8 | x8 |] %16
V:3
 [C,C]2 [C,G,][C,G,] [C,C]2 [E,C]2 | [F,C]2 [F,C][F,C] [C,C]2 [C,G,]2 | %2
w: ~ ~ ~ ~ ~|~ ~ ~ ~ ~|
 [G,B,]2 G,G, [G,B,]2 [G,C]2 | [G,D]2 [G,B,]G, [C,G,]4 | [C,C]2 [C,C][C,C] [C,G,]2 [E,C]2 | %5
w: ~ ~ ~ ~ ~|~ ~ ~ ~|~ ~ ~ ~ ~|
 [F,A,]2 [F,A,][F,B,] [F,C]2 [F,C]2 | [^F,A,]2 [F,B,][F,C] [G,C][G,C] [E,C]2 | %7
w: ~ ~ ~ ~ ~|~ ~ ~ ~ ~ ~|
 [F,A,]2 [G,C][G,D] [C,C]4 || [C,C]2 [C,G,][C,G,] [C,C]4 | [C,C]2 [E,C][E,C] [F,C]4 | %10
w: ~ ~ ~ ~|I take the life|of vic- to- ry,|
 G,2 [G,,G,][G,,A,] [G,,B,]4 | [C,C]2 [C,C][C,C] [C,G,]4 | [C,G,]2 [C,C][C,G,] [C,_B,]4 | %13
w: Not I, but Christ|Him- self in me;|He con- quers now,|
 [F,A,]2 [F,^G,][F,A,] [F,C]4 | [^F,A,]2 [F,A,][F,C] [G,C]3 G, | [G,B,]2 [G,D]2 [C,C]4 |] %16
w: He sets me free;|I take, He gives— the|vic- to- ry.|
V:4
 x8 | x8 | x2 G,G, x4 | x3 G, x4 | x8 | x8 | x8 | x8 || x8 | x8 | G,2 x6 | x8 | x8 | x8 | x7 G, | %15
 x8 |] %16

